packages/core/src/svgs/tokens/branded/CDAI.svg

<svg width="24" height="24" viewBox="0 0 24 24" fill="none" xmlns="http://www.w3.org/2000/svg">
<path d="M20.5295 4.29417C18.5924 2.79864 16.2121 1.99141 13.7649 2.00007C8.08246 2.00007 3.4707 6.47652 3.4707 12C3.4707 17.5236 8.08246 22 13.7649 22C16.3472 22 18.7236 21.0765 20.5295 19.553L19.4119 18.2001C17.8292 19.5247 15.8286 20.2457 13.7649 20.2353C9.05893 20.2353 5.2354 16.5471 5.2354 12C5.2354 7.453 9.05893 3.76477 13.7649 3.76477C15.8353 3.76477 17.9296 4.47065 19.4119 5.65888L20.5295 4.29417Z" fill="url(#paint0_linear_364_10497)"/>
<path fill-rule="evenodd" clip-rule="evenodd" d="M13.7648 7.88241H10.5295V10.8236H9.35303V11.4118H10.5295V12.5883H9.35303V13.1766H10.5295V15.5294H13.7648C14.5196 15.5294 15.2576 15.3061 15.8857 14.8873C16.5138 14.4686 17.0039 13.8733 17.2942 13.1766H18.1766V12.5883H17.4883C17.5782 12.203 17.608 11.8062 17.5765 11.4118H18.1766V10.8236H17.4883C17.2895 9.98568 16.8138 9.23933 16.138 8.70553C15.4621 8.17172 14.626 7.88168 13.7648 7.88241ZM16.8824 12.5883C16.9896 12.2059 17.0255 11.8072 16.9883 11.4118H11.1177V12.5883H16.8824ZM11.1177 13.1766V14.9413H13.7648C14.3612 14.9414 14.946 14.7766 15.4547 14.4651C15.9634 14.1537 16.3761 13.7078 16.6472 13.1766H11.1177ZM11.1177 10.8236H16.8824C16.6901 10.1453 16.2815 9.54825 15.7188 9.12357C15.1559 8.69882 14.4699 8.46956 13.7648 8.47064H11.1177V10.8236Z" fill="url(#paint1_linear_364_10497)"/>
<defs>
<linearGradient id="paint0_linear_364_10497" x1="12.0002" y1="2.00007" x2="12.0002" y2="22" gradientUnits="userSpaceOnUse">
<stop stop-color="#27D3A2"/>
<stop offset="1" stop-color="#9388FD"/>
</linearGradient>
<linearGradient id="paint1_linear_364_10497" x1="13.9353" y1="7.88241" x2="13.9353" y2="15.5295" gradientUnits="userSpaceOnUse">
<stop stop-color="#304250"/>
<stop offset="1" stop-color="#5D6E7D"/>
</linearGradient>
</defs>
</svg>

<svg xmlns="http://www.w3.org/2000/svg" width="24" height="24" fill="none" viewBox="0 0 24 24">
    <path fill="url(#CDAI__a)" d="M20.53 4.294A11 11 0 0 0 13.764 2C8.082 2 3.47 6.477 3.47 12c0 5.524 4.611 10 10.294 10a10.48 10.48 0 0 0 6.764-2.447L19.412 18.2a8.73 8.73 0 0 1-5.647 2.035c-4.706 0-8.53-3.688-8.53-8.235s3.824-8.235 8.53-8.235c2.07 0 4.165.706 5.647 1.894z"/>
    <path fill="url(#CDAI__b)" fill-rule="evenodd" d="M13.765 7.882H10.53v2.942H9.353v.588h1.177v1.176H9.353v.589h1.177v2.352h3.235a3.82 3.82 0 0 0 3.53-2.352h.882v-.589h-.689c.09-.385.12-.782.088-1.176h.6v-.588h-.688a3.824 3.824 0 0 0-3.723-2.942m3.117 4.706c.108-.382.143-.78.106-1.176h-5.87v1.176zm-5.764.589v1.764h2.647a3.24 3.24 0 0 0 2.882-1.764zm0-2.353h5.764a3.236 3.236 0 0 0-3.117-2.353h-2.647z" clip-rule="evenodd"/>
    <defs>
        <linearGradient id="CDAI__a" x1="12" x2="12" y1="2" y2="22" gradientUnits="userSpaceOnUse">
            <stop stop-color="#27D3A2"/>
            <stop offset="1" stop-color="#9388FD"/>
        </linearGradient>
        <linearGradient id="CDAI__b" x1="13.935" x2="13.935" y1="7.882" y2="15.53" gradientUnits="userSpaceOnUse">
            <stop stop-color="#304250"/>
            <stop offset="1" stop-color="#5D6E7D"/>
        </linearGradient>
    </defs>
</svg>
